src/topics/icons/cloudera.svg

<svg height="100" preserveAspectRatio="xMidYMid" viewBox="0 0 512 100" width="512" xmlns="http://www.w3.org/2000/svg"><path d="m441.708416 22.5512843c-5.036361 0-9.932824.6655797-14.689388 1.9882606-2.242622.6274255-4.345345 1.4286649-6.325127 2.3909999-.381543-.5935106-.835155-1.1531063-1.373553-1.6787872-1.86532-1.8017287-4.103703-2.7004733-6.715149-2.7004733h-10.072724v76.3169883h19.581612v-39.6210739c0-7.7071595 1.305723-10.7086275 3.921409-13.375186 2.611447-2.649601 6.621883-3.9765212 12.035548-3.9765212h8.449048v-19.3442072zm-357.5456411-22.5512843h-10.0769626v89.4802062c0 2.6580798.9368989 4.8795053 2.802218 6.6854734 1.8653192 1.8017287 4.1037021 2.7047127 6.7151489 2.7047127h10.0727233v-89.48444562c0-2.64960103-.9326596-4.87526589-2.7937394-6.68547331-1.8695585-1.79748934-4.1079414-2.70047337-6.7193882-2.70047337zm51.2835581 83.3755255c11.645526 0 15.329531-12.4170903 15.329531-22.9264678 0-10.5051382-3.684005-23.0833242-15.329531-23.0833242-11.649766 0-15.185394 12.578186-15.185394 23.0833242 0 10.5093775 3.535628 22.9264678 15.185394 22.9264678zm.021197-62.6747226c22.091313 0 34.338829 14.8080902 34.338829 39.5023718 0 24.5925369-12.247516 39.3582335-34.338829 39.3582335-22.527968 0-34.220128-14.7656966-34.220128-39.3582335 0-24.6942816 11.69216-39.5023718 34.220128-39.5023718zm-101.272839 62.6747226c-11.6455264 0-15.1853934-12.4170903-15.1853934-22.9264678 0-10.5051382 3.539867-23.0833242 15.1853934-23.0833242 6.0495691 0 9.9370637 3.4126862 12.2899094 8.1438138h20.3489359c-4.0867446-15.7534679-15.3422498-24.8087444-32.6176485-24.8087444-22.5279677 0-34.2158878 14.8080902-34.2158878 39.5023718 0 24.5925369 11.6879201 39.3582335 34.2158878 39.3582335 17.2753987 0 28.5097071-9.0467977 32.5922124-24.7451539h-13.3455105s-3.5907393.0975053-5.6129148 2.039133c-3.5186702 3.3787712-6.3844787 6.5201382-13.6549839 6.5201382zm205.301686-58.0606014c-1.772053-1.899234-4.057069-2.8446116-6.859287-2.8446116h-9.792925v47.8199993c0 4.5530744-1.352357 7.8724946-4.05707 9.9582605-2.704712 2.0857659-5.765531 3.1286489-9.127345 3.1286489-3.353335 0-6.418394-1.042883-9.123106-3.1286489-2.704713-2.0857659-4.061309-5.4051861-4.061309-9.9582605v-38.1500154c0-2.6538404-.881787-4.9261383-2.65808-6.8253723-1.767813-1.899234-4.052829-2.8446116-6.855047-2.8446116h-9.792926v44.3776377c0 13.4684519 3.726399 21.8030369 10.352521 26.457856 6.609165 4.6378616 13.934782 6.2530584 22.137947 6.2530584 8.207404 0 15.53726-1.6151968 22.142186-6.2530584 6.626122-4.6548191 10.352521-12.9894041 10.352521-26.457856v-34.7076538c0-2.6538404-.881787-4.9261383-2.65808-6.8253723zm77.320021-22.61275499c-1.865319-1.79748933-4.107941-2.70047337-6.715148-2.70047337h-9.822601v28.29349966c-2.976032-2.7937394-9.254527-7.5926967-18.759176-7.5926967-19.997069 0-31.557808 14.8038508-31.557808 39.4981324 0 24.5967763 11.874452 39.3582335 34.762766 39.3582335 22.349914 0 34.783962-14.6427551 34.881467-39.0487601h.008479v-51.12246207c0-2.65384039-.936899-4.8752659-2.797979-6.68547332zm-32.113164 80.67505209c-11.832058 0-15.431276-12.4213296-15.431276-22.9264678 0-10.5093775 3.599218-23.0833241 15.431276-23.0833241 11.759989 0 15.528782 12.425569 15.575415 22.8925529v.2501223c-.012718 10.4924201-3.764554 22.8671167-15.575415 22.8671167zm110.613848-27.6185932c0 1.6279148-.339149 3.1159308-1.008968 4.4598084-.423936.843633-.966575 1.6321543-1.653351 2.3655638-1.776293 1.8949947-3.963803 2.8446117-6.57525 2.8446117h-39.786409c.504484 9.084952 5.061798 17.9494572 14.905595 17.9494572 7.266266 0 10.127835-3.1456064 13.654984-6.5201382 2.022176-1.9373883 5.608676-2.0433723 5.608676-2.0433723h13.34975c-4.090984 15.6983561-15.321053 24.7451539-32.600692 24.7451539-22.523728 0-34.215887-14.7614573-34.215887-39.3539942 0-24.6985209 11.692159-39.5023718 34.215887-39.5023718 17.279639 0 28.539383 9.0552765 32.621888 24.8087444.737649 2.8191755 1.208218 5.8587978 1.471059 9.084952zm-34.118383-18.3903508c-8.114138 0-13.489648 6.1004414-14.07468 13.3497498h28.246866c-.046633-7.2493084-6.265776-13.3497498-14.172186-13.3497498zm150.801301 4.4725265c0-6.7617818-2.704713-12.0228296-8.114138-15.7831434-5.222894-3.5653032-13.061473-5.3543138-23.507261-5.3543138-9.330834 0-16.512313 2.1620745-21.548675 6.481984-4.476766 3.7560744-7.198436 8.885702-7.944563 14.7105849h18.750696c.93266-2.3655638 2.530899-3.8111861 4.591229-4.5615531 2.043372-.750367 4.37926-1.1319096 6.994946-1.1319096 3.25583 0 5.562043.4239362 7.97 1.2718085 2.844612 1.0004893 4.336867 2.6750372 4.336867 5.4942127 0 3.0184255-4.095223 5.837601-12.306867 6.9228776-9.869233 1.301484-17.66118 2.3825212-24.757872 7.6817233-4.557313 3.399968-7.427361 9.636069-7.427361 17.525521 0 8.4575265 2.58601 14.4223083 7.554542 18.1826221 4.430133 3.3533351 11.62433 6.2191435 23.274096 6.2191435 10.445787 0 18.280127-2.3189308 23.503021-5.8884733 5.409425-3.7560744 8.453287-8.088702 8.63134-16.0035902zm-21.035712 37.1071325c-2.98875 2.9505957-7.092453 4.4258935-12.315346 4.4258935-1.623676 0-6.766021-.3688244-8.90266-2.4545904-1.560085-1.5176914-2.51818-3.0735372-2.51818-5.837601 0-2.0306542.712212-3.9553244 1.954345-5.2949626 2.755585-2.9675532 5.786729-3.38725 12.306867-4.841351 4.31991-.9665745 9.619112-2.5817713 12.345021-4.1333776v5.744335c0 5.1677818.114463 9.4452977-2.870047 12.3916541z" fill="#004e6f"/></svg>

<?xml version="1.0" encoding="UTF-8" standalone="no"?>
<svg width="512px" height="100px" viewBox="0 0 512 100" version="1.1" xmlns="http://www.w3.org/2000/svg" xmlns:xlink="http://www.w3.org/1999/xlink" preserveAspectRatio="xMidYMid">
    <g>
        <path d="M441.708416,22.5512843 C436.672055,22.5512843 431.775592,23.216864 427.019028,24.5395449 C424.776406,25.1669704 422.673683,25.9682098 420.693901,26.9305448 C420.312358,26.3370342 419.858746,25.7774385 419.320348,25.2517576 C417.455028,23.4500289 415.216645,22.5512843 412.605199,22.5512843 L402.532475,22.5512843 L402.532475,98.8682726 L422.114087,98.8682726 L422.114087,59.2471987 C422.114087,51.5400392 423.41981,48.5385712 426.035496,45.8720127 C428.646943,43.2224117 432.657379,41.8954915 438.071044,41.8954915 L446.520092,41.8954915 L446.520092,22.5512843 L441.708416,22.5512843 Z M84.1627749,0 L74.0858123,0 L74.0858123,89.4802062 C74.0858123,92.138286 75.0227112,94.3597115 76.8880303,96.1656796 C78.7533495,97.9674083 80.9917324,98.8703923 83.6031792,98.8703923 L93.6759025,98.8703923 L93.6759025,9.38594668 C93.6759025,6.73634565 92.7432429,4.51068079 90.8821631,2.70047337 C89.0126046,0.90298403 86.7742217,0 84.1627749,0 Z M135.446333,83.3755255 C147.091859,83.3755255 150.775864,70.9584352 150.775864,60.4490577 C150.775864,49.9439195 147.091859,37.3657335 135.446333,37.3657335 C123.796567,37.3657335 120.260939,49.9439195 120.260939,60.4490577 C120.260939,70.9584352 123.796567,83.3755255 135.446333,83.3755255 Z M135.46753,20.7008029 C157.558843,20.7008029 169.806359,35.5088931 169.806359,60.2031747 C169.806359,84.7957116 157.558843,99.5614082 135.46753,99.5614082 C112.939562,99.5614082 101.247402,84.7957116 101.247402,60.2031747 C101.247402,35.5088931 112.939562,20.7008029 135.46753,20.7008029 Z M34.194691,83.3755255 C22.5491646,83.3755255 19.0092976,70.9584352 19.0092976,60.4490577 C19.0092976,49.9439195 22.5491646,37.3657335 34.194691,37.3657335 C40.2442601,37.3657335 44.1317547,40.7784197 46.4846004,45.5095473 L66.8335363,45.5095473 C62.7467917,29.7560794 51.4912865,20.7008029 34.2158878,20.7008029 C11.6879201,20.7008029 0,35.5088931 0,60.2031747 C0,84.7957116 11.6879201,99.5614082 34.2158878,99.5614082 C51.4912865,99.5614082 62.7255949,90.5146105 66.8081002,74.8162543 L53.4625897,74.8162543 C53.4625897,74.8162543 49.8718504,74.9137596 47.8496749,76.8553873 C44.3310047,80.2341585 41.4651962,83.3755255 34.194691,83.3755255 Z M239.496377,25.3149241 C237.724324,23.4156901 235.439308,22.4703125 232.63709,22.4703125 L222.844165,22.4703125 L222.844165,70.2903118 C222.844165,74.8433862 221.491808,78.1628064 218.787095,80.2485723 C216.082383,82.3343382 213.021564,83.3772212 209.65975,83.3772212 C206.306415,83.3772212 203.241356,82.3343382 200.536644,80.2485723 C197.831931,78.1628064 196.475335,74.8433862 196.475335,70.2903118 L196.475335,32.1402964 C196.475335,29.486456 195.593548,27.2141581 193.817255,25.3149241 C192.049442,23.4156901 189.764426,22.4703125 186.962208,22.4703125 L177.169282,22.4703125 L177.169282,66.8479502 C177.169282,80.3164021 180.895681,88.6509871 187.521803,93.3058062 C194.130968,97.9436678 201.456585,99.5588646 209.65975,99.5588646 C217.867154,99.5588646 225.19701,97.9436678 231.801936,93.3058062 C238.428058,88.6509871 242.154457,80.3164021 242.154457,66.8479502 L242.154457,32.1402964 C242.154457,29.486456 241.27267,27.2141581 239.496377,25.3149241 Z M316.816398,2.70216911 C314.951079,0.904679775 312.708457,0.00169574466 310.10125,0.00169574466 L300.278649,0.00169574466 L300.278649,28.2951954 C297.302617,25.501456 291.024122,20.7024987 281.519473,20.7024987 C261.522404,20.7024987 249.961665,35.5063495 249.961665,60.2006311 C249.961665,84.7974074 261.836117,99.5588646 284.724431,99.5588646 C307.074345,99.5588646 319.508393,84.9161095 319.605898,60.5101045 L319.614377,60.5101045 L319.614377,9.38764243 C319.614377,6.73380204 318.677478,4.51237653 316.816398,2.70216911 Z M284.703234,83.3772212 C272.871176,83.3772212 269.271958,70.9558916 269.271958,60.4507534 C269.271958,49.9413759 272.871176,37.3674293 284.703234,37.3674293 C296.463223,37.3674293 300.232016,49.7929983 300.278649,60.2599822 L300.278649,60.5101045 C300.265931,71.0025246 296.514095,83.3772212 284.703234,83.3772212 Z M395.317082,55.758628 C395.317082,57.3865428 394.977933,58.8745588 394.308114,60.2184364 C393.884178,61.0620694 393.341539,61.8505907 392.654763,62.5840002 C390.87847,64.4789949 388.69096,65.4286119 386.079513,65.4286119 L346.293104,65.4286119 C346.797588,74.5135639 351.354902,83.3780691 361.198699,83.3780691 C368.464965,83.3780691 371.326534,80.2324627 374.853683,76.8579309 C376.875859,74.9205426 380.462359,74.8145586 380.462359,74.8145586 L393.812109,74.8145586 C389.721125,90.5129147 378.491056,99.5597125 361.211417,99.5597125 C338.687689,99.5597125 326.99553,84.7982552 326.99553,60.2057183 C326.99553,35.5071974 338.687689,20.7033465 361.211417,20.7033465 C378.491056,20.7033465 389.7508,29.758623 393.833305,45.5120909 C394.570954,48.3312664 395.041523,51.3708887 395.304364,54.5970429 L395.317082,55.758628 Z M361.198699,37.3682772 C353.084561,37.3682772 347.709051,43.4687186 347.124019,50.718027 L375.370885,50.718027 C375.324252,43.4687186 369.105109,37.3682772 361.198699,37.3682772 Z M512,41.8408037 C512,35.0790219 509.295287,29.8179741 503.885862,26.0576603 C498.662968,22.4923571 490.824389,20.7033465 480.378601,20.7033465 C471.047767,20.7033465 463.866288,22.865421 458.829926,27.1853305 C454.35316,30.9414049 451.63149,36.0710325 450.885363,41.8959154 L469.636059,41.8959154 C470.568719,39.5303516 472.166958,38.0847293 474.227288,37.3343623 C476.27066,36.5839953 478.606548,36.2024527 481.222234,36.2024527 C484.478064,36.2024527 486.784277,36.6263889 489.192234,37.4742612 C492.036846,38.4747505 493.529101,40.1492984 493.529101,42.9684739 C493.529101,45.9868994 489.433878,48.8060749 481.222234,49.8913515 C471.353001,51.1928355 463.561054,52.2738727 456.464362,57.5730748 C451.907049,60.9730428 449.037001,67.2091438 449.037001,75.0985958 C449.037001,83.5561223 451.623011,89.5209041 456.591543,93.2812179 C461.021676,96.634553 468.215873,99.5003614 479.865639,99.5003614 C490.311426,99.5003614 498.145766,97.1814306 503.36866,93.6118881 C508.778085,89.8558137 511.821947,85.5231861 512,77.6082979 L512,41.8408037 Z M490.964288,78.9479362 C487.975538,81.8985319 483.871835,83.3738297 478.648942,83.3738297 C477.025266,83.3738297 471.882921,83.0050053 469.746282,80.9192393 C468.186197,79.4015479 467.228102,77.8457021 467.228102,75.0816383 C467.228102,73.0509841 467.940314,71.1263139 469.182447,69.7866757 C471.938032,66.8191225 474.969176,66.3994257 481.489314,64.9453247 C485.809224,63.9787502 491.108426,62.3635534 493.834335,60.8119471 L493.834335,66.5562821 C493.834335,71.7240639 493.948798,76.0015798 490.964288,78.9479362 L490.964288,78.9479362 Z" fill="#004E6F"></path>
    </g>
</svg>
